X: 43
T:McCusker
% Nottingham Music Database
S:McCusker Brothers
M:4/4
L:1/8
R:Hornpipe
K:D
A2|"D"A2/3B2/3A2/3FA f2d2|"D"A2/3B2/3A2/3FA f2da|"G"gfed "A"c2cd|"E7"e2/3f2/3e2/3d2/3c2/3B2/3 "A7"A4|
"D"A2/3B2/3A2/3 FA f2d2|"D"A2/3B2/3A2/3 FA f2da|"G"gfed "A7"cABc|"D"d2f2 d2:|:
A2/3B2/3c2/3|"D"dAdf a2f2|"D"dAdf a2fa|"G"gfed "A"c2cd|"E7"e2/3f2/3e2/3 d2/3c2/3B2/3 "A7"A2 A2/3B2/3c2/3|
"D"dAdf a2f2|"D"dAdf a2fa|"G"gfed "A7"cABc|"D"d2f2 d2:|



